!!!OTL: Graf und Nonne (Die Nonne) Ich stand auf hohem Berge,
!!!ARE: Europa, Mitteleuropa, Deutschland (BRD), Nordrhein - Westfalen, Meurs
!!!YOR: 8, S. 32
!!    1838 aufgezeichnet
!!!SCT: Q0155C
!!!YEM: Copyright 1995, estate of Helmut Schaffrath.
**kern
*ICvox
*Ivox
*M2/4
*k[b-]
*F:
{16f
16a
=1
8.cc
16ff
16cc
16a
16b-
16g
=2
4a
8g}
{16.g
32b-
=3
8a
16a
16cc
8bn
16bn
16dd
=4
4cc
8r}
{8cc
=5
8ff
16ff
16ff
16ee
16dd
8cc
=6
4dd
8cc
16r
16cc
=7
8.cc
16b-
8a}
{8cc
=8
8dd
16cc
16b-
8a
8g
=9
4f
8r}
==
!!!AGN: Ballade, Standesunterschied, vergebliche Werbung, Liebe, Klage
!! Anhaengsel an der dritten Zeile.
!!!ONB: ESAC (Essen Associative Code) Database: BALLADE
!!!AMT: simple duple
!!!AIN: vox
!!!EED: Helmut Schaffrath
!!!EEV: 1.0
*-
